src/assets/crown.svg

<svg width="24" height="18" viewBox="0 0 24 18" fill="none" xmlns="http://www.w3.org/2000/svg">
<path d="M23.7741 5.09989C23.677 5.0017 23.5526 4.93491 23.4171 4.90817C23.2817 4.88143 23.1412 4.89596 23.0141 4.94989L16.0141 7.7999L12.6241 0.369896C12.5604 0.257598 12.468 0.164193 12.3565 0.0992126C12.2449 0.034232 12.1181 0 11.989 0C11.86 0 11.7332 0.034232 11.6216 0.0992126C11.5101 0.164193 11.4177 0.257598 11.354 0.369896L7.96402 7.7999L0.964024 4.94989C0.836881 4.89596 0.696563 4.88143 0.56107 4.90817C0.425577 4.93491 0.301134 5.0017 0.204015 5.09989C0.106124 5.1993 0.0397739 5.32535 0.0130967 5.4623C-0.0135806 5.59924 0.000695251 5.74101 0.0541123 5.8699L4.58402 16.6199C4.63754 16.7479 4.72793 16.8572 4.84366 16.9337C4.9594 17.0103 5.09528 17.0507 5.23404 17.0499H18.7641C18.9031 17.0521 19.0396 17.0122 19.1556 16.9354C19.2715 16.8587 19.3617 16.7487 19.4141 16.6199L23.944 5.8699C23.9949 5.73912 24.006 5.59617 23.9757 5.45912C23.9455 5.32207 23.8754 5.19707 23.7741 5.09989ZM5.67411 15.6399L1.98404 6.87989L8.0441 9.34989C8.21158 9.41762 8.39871 9.41797 8.56644 9.35088C8.73418 9.28378 8.86943 9.15444 8.94401 8.98989L11.944 2.34989L14.944 8.98989C15.0224 9.15352 15.1598 9.28151 15.3285 9.34826C15.4973 9.41501 15.6849 9.41559 15.854 9.34989L21.9141 6.87989L18.2441 15.6399H5.67411Z" fill="#7650e3"/>
</svg>

<svg xmlns="http://www.w3.org/2000/svg" width="24" height="18" fill="none" viewBox="0 0 24 18"><path fill="#7650e3" d="M23.774 5.1a.69.69 0 0 0-.76-.15l-7 2.85-3.39-7.43a.73.73 0 0 0-1.27 0L7.964 7.8l-7-2.85a.69.69 0 0 0-.76.15.71.71 0 0 0-.15.77l4.53 10.75a.7.7 0 0 0 .65.43h13.53a.69.69 0 0 0 .65-.43l4.53-10.75a.71.71 0 0 0-.17-.77m-18.1 10.54-3.69-8.76 6.06 2.47a.7.7 0 0 0 .9-.36l3-6.64 3 6.64a.72.72 0 0 0 .91.36l6.06-2.47-3.67 8.76z"/></svg>
